X:1
T:Vexilla regis I - Ravanello
T:James Gibb editions
%%score { 1 | 2 } 3
L:1/8
Q:1/4=112
M:4/4
K:G
V:1 treble nm="Soprano I" snm="S"
V:2 treble 
V:3 treble nm="Alto" snm="A"
V:1
"^Vexilla regis I, op.66/7""^Oreste Ravanello\n (1871-1938)""^mosso" B4 B2 B2 | e4 d4 | c4 c4 | %3
w: Ve- xil- la|re- gis|pro- de-|
w: Im- ple- ta|sunt quae|con- ci-|
w: Be- a- ta|cu- ius|bra- chi-|
w: Te fons sa-|lu- tis|Tri- ni-|
 B6- B2 | B4 e4 | (e2 d^c) (d2 d2) |[M:4/4] ^c6 c2 | d8 | d4 d2 d2 | e4- e2 B2 | c4 c4 | B6- B2 | %12
w: unt: *|ful- get|cru\- * * cis my-|ste- ri-|um:|qua vi- ta|mor\- * tem|per- tu-|lit, *|
w: net Da-|vid fi-|de\- * * * li|car- mi-|ne,|di- cen- do|na\- * ti-|o- ni-|bus: re-|
w: is *|pre- ti-|um pe\- * pen- dit|sae- cu-|li,|sta- te- ra|fa\- * cta|cor- po-|ris *|
w: tas, col-|lau- det|o\- * * mnis *|spi- ri-|tus:|qui- bus *|cru- cis vi-|cto- ri-|am *|
 B4 B2 B2 | B6 A2 | (G2 FE) F4 | !fermata!E8 || c8 | !fermata!B8 |] %18
w: et mor- te|vi- tam|pro\- * * tu-|lit.|||
w: gna- vit a|li- gno|De\- * * *|us.|||
w: tu- lit- que|prae- dam|tar\- * * ta-|ri.|||
w: lar- gi- ris,|ad- de|prae\- * * mi-|um.|A-|men.|
V:2
 G4 G2 G2 | G4 G4 | A4 A4 | G6- G2 | G6 (AG) | F2- F2 (F2 B2) |[M:4/4] (B2 ^A^G) A4 | B8 | %8
w: Ve- xil- la|re- gis|pro- de-|unt: *|ful- get *|cru\- * cis my-|ste\- * * ri-|um:|
w: Im- ple- ta|sunt quae|con- ci-|net Da-|vid fi\- *|de\- * * li|car\- * * mi-|ne,|
w: Be- a- ta|cu- ius|bra- chi-|is *|pre- ti\- *|um pe- pen- dit|sae\- * * cu-|li,|
w: Te fons sa-|lu- tis|Tri- ni-|tas, col-|lau- det *|o\- * mnis *|spi\- * * ri-|tus:|
 B4 B2 B2 | (B3 A) G4 | (A3 G) (F2 E2) | ^D6- D2 | ^D4 E2 F2 | (G2 F2) E4 | (E2 ^D^C) D4 | %15
w: qua vi- ta|mor\- * tem|per\- * tu\- *|lit, *|et mor- te|vi\- * tam|pro\- * * tu-|
w: di- cen- do|na\- * ti-|o\- * ni\- *|bus: re-|gna- vit a|li\- * gno|De\- * * *|
w: sta- te- ra|fa\- * cta|cor\- * po\- *|ris *|tu- lit- que|prae\- * dam|tar\- * * ta-|
w: qui- bus *|cru- cis vi-|cto\- * ri\- *|am *|lar- gi- ris,|ad\- * de|prae\- * * mi-|
 !fermata!E8 || E8 | !fermata!^G8 |] %18
w: lit.|||
w: us.|||
w: ri.|||
w: um.|A-|men.|
V:3
 E4 E2 E2 | C4 B,4 | (A,3 B,) (C2 A,2) | E6- E2 | (E2 D2) ^C4 | D2- D2 (D2 B,2) |[M:4/4] F4 F4 | %7
w: Ve- xil- la|re- gis|pro\- * de\- *|unt: *|ful\- * get|cru\- * cis my-|ste- ri-|
w: Im- ple- ta|sunt quae|con\- * ci\- *|net Da-|vid * fi-|de\- * * li|car- mi-|
w: Be- a- ta|cu- ius|bra\- * chi\- *|is *|pre\- * ti-|um pe- pen- dit|sae- cu-|
w: Te fons sa-|lu- tis|Tri\- * ni\- *|tas, col-|lau\- * det|o\- * mnis *|spi- ri-|
 B,8 | G,4 G2 G2 | G3 F E4 | A,4 A,4 | B,6- B,2 | B,4 ^C2 ^D2 | E2 =D2 =C4 | B,4 B,4 | %15
w: um:|qua vi- ta|mor\- * tem|per- tu-|lit, *|et mor- te|vi\- * tam|pro- tu-|
w: ne,|di- cen- do|na\- * ti-|o- ni-|bus: re-|gna- vit a|li\- * gno|De- *|
w: li,|sta- te- ra|fa\- * cta|cor- po-|ris *|tu- lit- que|prae\- * dam|tar- ta-|
w: tus:|qui- bus *|cru- cis vi-|cto- ri-|am *|lar- gi- ris,|ad\- * de|prae- mi-|
 !fermata!E8 || A,8 | !fermata!E8 |] %18
w: lit.|||
w: us.|||
w: ri.|||
w: um.|A-|men.|

